X: 59
T: Polonaise nach Blitz
M: 3/4
L: 1/16
K: G
R: polonaise 
V: 1
G4D4G4 | A2A2 ABcAB4 | A2A2 ABcAB4 | c2e2 e2dc d2B2 | A2c2 c2BA B2G2 | FGAFG4G,4 :|
|:A4D4c4 | B2B2 BdcBA4 | A4D4c4 | B2B2 BdcBA4 | c2e2 e2dc d2B2 | A2c2 c2BA B2G2 | FGAFG4G,4 :|
V: 2
B,4B,4B,4 | F2F2 FGAFG4 | F2F2 FGAFG4 | A2c2 c2BA B2G2 | F2A2 A2GF G2D2 | A,B,CA,B,4B,4 :|
|:F4F4A4 | G2G2 GBAGF4 | F4F4A4 | G2G2 GBAGF4 | A2c2 c2BA B2G2 | F2A2 A2GF G2D2 | A,B,CA,B,4B,4 :|

